X: 7176
T: Ciaran Dunne's
R: reel
M: 4/4
K: Amixolydian
eAAG ABcd|efec d2 cd|eAAG ABcd|1 efge d2 cd:|2 efge d4||
e2 eg f2 fe|efec d2 cd|edef gfga|bgec d2 cd|
e2 eg f2 fe|efec d2 cd|edef gfgb|agec d4||

